icons/bag-check.svg

<svg xmlns="http://www.w3.org/2000/svg" width="24" height="24" viewBox="0 0 24 24">
  <path d="M14,2 C15.5976809,2 16.9036609,3.24891996 16.9949073,4.82372721 L17,5 L17,6 L20,6 C21.1045695,6 22,6.8954305 22,8 L22,20 C22,21.1045695 21.1045695,22 20,22 L4,22 C2.8954305,22 2,21.1045695 2,20 L2,8 C2,6.8954305 2.8954305,6 4,6 L7,6 L7,5 C7,3.40231912 8.24891996,2.09633912 9.82372721,2.00509269 L10,2 L14,2 Z M15.1616337,11.2501621 C14.7475097,10.8847586 14.1155778,10.9242544 13.7501742,11.3383784 L13.7501742,11.3383784 L10.9700121,14.488 L10.2498499,13.6717117 L10.1610152,13.5828086 C9.78851489,13.2539073 9.22065875,13.2461999 8.83839043,13.5834955 C8.42426642,13.948899 8.38477067,14.580831 8.75017421,14.994955 L8.75017421,14.994955 L10.2207624,16.6616216 L10.3105198,16.7513955 C10.7177952,17.1104909 11.3507811,17.0805663 11.7204382,16.6616216 L11.7204382,16.6616216 L15.2498499,12.6616216 L15.327,12.5624086 C15.6069605,12.1518544 15.543902,11.5874577 15.1616337,11.2501621 Z M14,4 L10,4 C9.48716416,4 9.06449284,4.38604019 9.00672773,4.88337887 L9,5 L9,6 L15,6 L15,5 C15,4.48716416 14.6139598,4.06449284 14.1166211,4.00672773 L14,4 Z"/>
</svg>

<svg xmlns="http://www.w3.org/2000/svg" viewBox="0 0 24 24">
  <path d="M14 2a3 3 0 0 1 3 2.82V6h3a2 2 0 0 1 2 2v12a2 2 0 0 1-2 2H4a2 2 0 0 1-2-2V8c0-1.1.9-2 2-2h3V5a3 3 0 0 1 2.82-3H14zm1.16 9.25a1 1 0 0 0-1.41.09l-2.78 3.15-.72-.82-.09-.09A1 1 0 0 0 8.75 15l1.47 1.67.1.1a1 1 0 0 0 1.4-.1l3.53-4 .08-.1a1 1 0 0 0-.17-1.31zM14 4h-4a1 1 0 0 0-1 .88V6h6V5a1 1 0 0 0-.88-1H14z"/>
</svg>
